X: 1
T: The Silver Spear
R: reel
M: 4/4
L: 1/8
K: Dmaj
|:"D"FA ~A2 BAFA|"G"dfed "A"BcdA|"D"FA ~A2 BAFA|"G"dfed "A"~B2 A2|
"D"FA ~A2 BAFA|"G"dfed "A"Bdef|"G"~g3 e "D"~f3 e|"G"dfed "A"~B2 A2:|
|:"D"fa ~a2 bfaf|"G"gfed "A"Bcde|"D"fa ~a2 bfaf|"G"gfed "A"~B2 A2|
"D"fa ~a2 bfaf|"G"gfed "A"Bdef|"G"~g3 e "D"~f3 e|1 "G"dfed "A"~B2 A2:|2 "G"dfed "D"~B2 AG||

